actions/symbolic/mail-send-receive-symbolic.svg

<?xml version="1.0" encoding="UTF-8" standalone="no"?>
<svg
   height="16"
   width="16"
   version="1.1"
   id="svg688"
   sodipodi:docname="mail-send-receive-symbolic.svg"
   inkscape:version="1.2.2 (b0a8486541, 2022-12-01)"
   xmlns:inkscape="http://www.inkscape.org/namespaces/inkscape"
   xmlns:sodipodi="http://sodipodi.sourceforge.net/DTD/sodipodi-0.dtd"
   xmlns="http://www.w3.org/2000/svg"
   xmlns:svg="http://www.w3.org/2000/svg">
  <defs
     id="defs692" />
  <sodipodi:namedview
     id="namedview690"
     pagecolor="#ffffff"
     bordercolor="#000000"
     borderopacity="0.25"
     inkscape:showpageshadow="2"
     inkscape:pageopacity="0.0"
     inkscape:pagecheckerboard="0"
     inkscape:deskcolor="#d1d1d1"
     showgrid="false"
     inkscape:zoom="9.6785241"
     inkscape:cx="9.5572423"
     inkscape:cy="8.1624016"
     inkscape:window-width="1390"
     inkscape:window-height="1053"
     inkscape:window-x="520"
     inkscape:window-y="0"
     inkscape:window-maximized="0"
     inkscape:current-layer="svg688" />
  <path
     d="m 4.4990253,1.7500545 c -0.080838,0 -0.1508278,0.03231 -0.2089844,0.08789 L 0.6015631,6.4356641 c -0.062219,0.059439 -0.101562,0.1428761 -0.101562,0.2421875 0,0.1845228 0.1302171,0.3222656 0.3046881,0.3222656 h 1.8965061 c 0.1628379,-1.16e-4 0.2988281,0.1459138 0.2988281,0.3242187 v 3.3693431 c 0,0.174818 0.1290258,0.306641 0.3007812,0.306641 h 2.3983907 c 0.1717556,0 0.3007813,-0.131823 0.3007812,-0.306641 V 7.2930859 C 6.0150045,7.1294056 6.1455714,7.0000084 6.2988047,7.0001172 h 1.9006492 c 0.174469,0 0.300781,-0.1377426 0.300781,-0.3222656 0,-0.1845764 -0.07628,-0.1785565 -0.103516,-0.2421875 L 4.7099628,1.8379455 c -0.054667,-0.05559 -0.1295192,-0.08789 -0.2109375,-0.087891 z"
     style="font-variation-settings:normal;vector-effect:none;fill:#555761;fill-opacity:1;stroke:none;stroke-width:1;stroke-linecap:round;stroke-linejoin:round;stroke-miterlimit:4;stroke-dasharray:none;stroke-dashoffset:0;stroke-opacity:0.5;-inkscape-stroke:none;stop-color:#000000"
     id="path873-5-5"
     sodipodi:nodetypes="sccsscsssscccssccs" />
  <path
     id="path2066"
     style="color:#000000;fill:#555761;fill-opacity:1;fill-rule:evenodd;stroke-width:1;stroke-linecap:round;stroke-linejoin:round;-inkscape-stroke:none;paint-order:markers fill stroke"
     d="M 4.5,1.75 C 4.3504036,1.7496571 4.2085373,1.8162992 4.1132812,1.9316406 l -3.49804682,4.25 C 0.3457245,6.5081455 0.57856754,7.0009021 1.0019531,7 H 2 2.5 C 2.7761309,7.0000276 2.9999724,7.2238691 3,7.5 V 8 11.5 c 2.76e-5,0.276131 0.22385,0.499972 0.5,0.5 h 2 C 5.7761499,11.999972 5.9999724,11.776131 6,11.5 V 8 7.5 C 6.0000276,7.2238691 6.2238691,7.0000276 6.5,7 H 7 7.9980469 c 0.211693,4.511e-4 0.3756732,-0.1232202 0.453125,-0.2871094 0.077452,-0.1638891 0.068349,-0.3679975 -0.066406,-0.53125 l -3.4980468,-4.25 C 4.7914626,1.8162996 4.6495962,1.7496572 4.5,1.75 Z"
     sodipodi:nodetypes="cccccccccccccccccsccc" />
  <path
     id="path2223"
     style="color:#000000;fill:#555761;fill-opacity:1;fill-rule:evenodd;stroke-width:1;stroke-linecap:round;stroke-linejoin:round;-inkscape-stroke:none;paint-order:markers fill stroke"
     d="m 11.5,14.25 c 0.149596,3.43e-4 0.291463,-0.0663 0.386719,-0.181641 L 15.384766,9.8183594 C 15.654276,9.4918545 15.421433,8.9990979 14.998047,9 H 14 13.5 C 13.223869,8.9999724 13.000028,8.7761309 13,8.5 V 8 4.5 C 12.999972,4.223869 12.77615,4.000028 12.5,4 h -2 C 10.22385,4.000028 10.000028,4.223869 10,4.5 V 8 8.5 C 9.9999724,8.7761309 9.7761309,8.9999724 9.5,9 H 9 8.0019531 c -0.211693,-4.511e-4 -0.3756732,0.1232202 -0.453125,0.2871094 -0.077452,0.1638891 -0.068349,0.3679975 0.066406,0.53125 L 11.113281,14.068359 C 11.208537,14.1837 11.350404,14.250342 11.5,14.25 Z"
     sodipodi:nodetypes="cccccccccccccccccsccc" />
</svg>

<svg
        xmlns='http://www.w3.org/2000/svg'
        xmlns:svg='http://www.w3.org/2000/svg'
        id='svg688'
        width='16'
        height='16'>
  <path
          id='path2066'
          color='rgb(0,0,0)'
          fill='url(#gpa:foreground) #555761'
          fill-opacity='1'
          fill-rule='evenodd'
          stroke-width='1'
          stroke-linecap='round'
          stroke-linejoin='round'
          paint-order='markers fill stroke'
          d='M 4.5 1.75 C 4.3504 1.74966, 4.20854 1.8163, 4.11328 1.93164 L 0.615234 6.18164 C 0.345724 6.50815, 0.578568 7.0009, 1.00195 7 L 2 7 L 2.5 7 C 2.77613 7.00003, 2.99997 7.22387, 3 7.5 L 3 8 L 3 11.5 C 3.00003 11.7761, 3.22385 12, 3.5 12 L 5.5 12 C 5.77615 12, 5.99997 11.7761, 6 11.5 L 6 8 L 6 7.5 C 6.00003 7.22387, 6.22387 7.00003, 6.5 7 L 7 7 L 7.99805 7 C 8.20974 7.00045, 8.37372 6.87678, 8.45117 6.71289 C 8.52862 6.549, 8.51952 6.34489, 8.38477 6.18164 L 4.88672 1.93164 C 4.79146 1.8163, 4.6496 1.74966, 4.5 1.75 Z'
          class="foreground">
  </path>
  <path
          id='path2223'
          color='rgb(0,0,0)'
          fill='url(#gpa:foreground) #555761'
          fill-opacity='1'
          fill-rule='evenodd'
          stroke-width='1'
          stroke-linecap='round'
          stroke-linejoin='round'
          paint-order='markers fill stroke'
          d='M 11.5 14.25 C 11.6496 14.2503, 11.7915 14.1837, 11.8867 14.0684 L 15.3848 9.81836 C 15.6543 9.49185, 15.4214 8.9991, 14.998 9 L 14 9 L 13.5 9 C 13.2239 8.99997, 13 8.77613, 13 8.5 L 13 8 L 13 4.5 C 13 4.22387, 12.7761 4.00003, 12.5 4 L 10.5 4 C 10.2239 4.00003, 10 4.22387, 10 4.5 L 10 8 L 10 8.5 C 9.99997 8.77613, 9.77613 8.99997, 9.5 9 L 9 9 L 8.00195 9 C 7.79026 8.99955, 7.62628 9.12322, 7.54883 9.28711 C 7.47138 9.451, 7.48048 9.65511, 7.61523 9.81836 L 11.1133 14.0684 C 11.2085 14.1837, 11.3504 14.2503, 11.5 14.25 Z'
          class="foreground">
  </path>
</svg>
